X: 122008
P: Same figure.
M: 2/4
L: 1/16
K: D
c2B2 B2cd | f2e2 A4 |\
c2B2f2e2 | cdBc A2 :|
|: uA2 |\
vA4 defd | uA4 defd |\
agfg e2e2 | agfg e2e2 |\
vA4 defd | uA4 defd |\
agfg e2c2 | d2z2 d2 :|


